X:891
T:Reel 891
M:4/4
K:Dmix
L:1/8
FG|ADDB, C2FG|ADDF G2FG|ADDB, C2EF|GEcE EDCE|AD (3DCD ECEG|ADdD cDAG| (3ABA EG cAGE| (3FED EG FDD|||Addc ABcG|Adde f2ec|dBAG ABcA|GECE G2FG|AD (3FED AG (3EFG |Adde feed| (3cBA BG AF (3EFG | (3ABc GF EDD2|
